X:1
T:Over the Water to Charlie
M:3/4
L:1/8
K:G
 z4 G2| G2 B2- BG| A F- F2- FD| E2 G2- GB,| A,6-| A,4 G2| G2 B2- BG|\
 A F- F2- FD| E6| G6-| G4 G2| G B- B2 G2| A F- F2 D2| E2- EG B,2| A,6|\
 A,4- A, G,| G, B,- B,2 D2| D B,- B,2- B,D| E6| G6-| G6-| G6| G4 G,2|\
 G, B,- B,2 D2| D2 B,2 D2| E G- G2- GB,| A,6-| A,6| G,2 B,2 D2| D B,- B,2- B,D|\
 E6| G6-| G6| G,2 B, D- D2| D B,- B,2- B,D| E2 G2- GB,| A,6-| A,4- A,G|\
 G2 B2 G2| A2 F2- FD| E6| G6-| G4 z2|
